!!!!SEGMENT: pl-kc--40102-iii-1-saf--002-033_zielenski-mikolaj--communiones-totius-anni-in-festo-paschae-pascha-nostrum.krn
!!!cenid: 16xx:1564
!!!COM: Zieleński, Mikołaj
!!!COM-rismID: pe30013481
!!!CDT: <1611->1611
!!!CNT: Polish
!!!GTL: Communiones totius anni
!!!OTL: In festo Paschae/Pascha nostrum
!!!OMV: 033
!!!PDT: 1611
!!!AGN:
!!!SMS-siglum: PL-Kc
!!!SMS-shelfmark: 40102 III/1 Saf.
!!!SMS-shelfwork: 002-033 G
!!!SMS-variant:
!!!SMS-altvar:
!!!NIFC-rismSourceID: 990069887
!!!NIFC-islandoraID:
!!!URL-pdf-islandora:
!!!URL-scan: https://cyfrowe.mnk.pl/dlibra/publication/24235/edition/23926/content?ref=desc @EN{Scan on The National Museum in Krakow Website} @PL{Skany w portalu Biblioteka Cyfrowa Muzeum Narodowego w Krakowie}
!!!ONB-nifc: UWAGA: str. 60-61. Numer w źródle: 39. Uwaga: W xml metrum 2/1 do źródłowego C| i odpowiednio 3/1 do 3/2
!!!AIN: 4 organ
!!!key:
**kern	**kern	**kern	**kern
*part4	*part3	*part2	*part1
*staff4	*staff3	*staff2	*staff1
*I"	*I"	*I"	*I"Organo
*I'	*I'	*I'	*I'org
*Iorgan	*Iorgan	*Iorgan	*Iorgan
*ICklav	*ICklav	*ICklav	*ICklav
*clefF4	*clefC4	*clefC1	*clefC1
*k[b-]	*k[b-]	*k[b-]	*k[b-]
*F:	*F:	*F:	*F:
*M2/1	*M2/1	*M2/1	*M2/1
*met(C|)	*met(C|)	*met(C|)	*met(C|)
=1	=1	=1	=1
!	!	!	!LO:TX:b:t=Paſcha noſtrum.
!	!	!	!LO:TX:a:t=39. In feſto Paſchae.  24.  Soli debent cantare cum Organo ſine Inſtrumentis.
1.F	2.F/	1.a	1.cc
.	4G/	.	.
.	4A/	.	.
.	4B-\	.	.
2E\	2.c\	2g/	2cc\
=2-	=2-	=2-	=2-
1D	.	1f	1dd
!	!LO:N:acc=#	!	!
.	8Bn\	.	.
.	8A\	.	.
.	2B\	.	.
2C/	2c\	2e/	2g/
4GG/	4B-yX\	4d/	4b-\
4GG/	4G/	4d/	4b-\
=3	=3	=3	=3
2BB-/	8D/	4.d/	2b-\
.	8E/	.	.
.	8F/	.	.
.	8G/	8e/	.
4FF/	4A/	8f/	8a\
.	.	8g/	8b-\
4FF/	4F/	8a\	8cc\
.	.	8b-\	8dd\
!	!LO:TX:b:t=?	!	!
!	!LO:TX:b:t=x	!	!
0C	2G/	2cc\	4ee\
.	.	.	4cc\
.	2F/	2a\	2.ff\
=4-	=4-	=4-	=4-
.	1G	1g	.
.	.	.	8ee\
.	.	.	8dd\
.	.	.	2ee\
2FF/	2F/	2a\	2ff\
4FF/	4F/	4a\	4dd\
4FF/	4F/	4a\	4cc\
*custos:BB	*custos:F	*custos:b	*custos:dd
!!linebreak:original
=5	=5	=5	=5
!	!	!	!LO:TX:b:t=Alio modo, Semplice, Cantores cum Inſtrumentis,& Organo.   39.
2BB-/	2F/	4.b-\	2dd\
.	.	8b-\	.
4FF/	4F/	4a\	4cc\
4FF/	4F/	2dd\	2ff\
1BB-	4BB-/	.	.
.	4C/	2cc\	4ee\
.	2D/	.	2dd\
!	!	!LO:N:acc=#	!
.	.	4bnX\	.
=6-	=6-	=6-	=6-
*M3/2	*M3/2	*M3/2	*M3/2
1C	1C	1cc	1ee
2C/	2c\	2cc\	2ee\
1GG	1d	1b-y	1dd
2BB-/	2B-\	2b-\	2dd\
=7	=7	=7	=7
2FF/	1c	1a	1cc
2F\	.	.	.
2BB-/	2d\	2g/	2b-\
1F	2.c\	2f/	2a\
.	.	1c	1g
.	4A/	.	.
2E\	2G/	.	.
=8-	=8-	=8-	=8-
1F	1F	1c	1a
2FF/	2F/	2f/	2a\
1BB-	1F	4B-/	4d/
.	.	4c/	4e/
.	.	4d/	4f/
.	.	4c/	4e/
2BB-/	2F/	4d/	4f/
.	.	4e/	4g/
=9	=9	=9	=9
1FF	4F/	1f	1a
.	4G/	.	.
.	4A/	.	.
.	4G/	.	.
2FF/	4A/	2f/	2a\
.	4B-\	.	.
2C/	2c\	4e/	4g\
.	.	4f/	4a\
1GG	1d	4g/	4b-\
.	.	4f/	4a\
.	.	4g/	4b-\
.	.	4a\	4cc\
=10-	=10-	=10-	=10-
4GG/	1B-	1b-	1dd
4AA/	.	.	.
4BB-/	.	.	.
4GG/	.	.	.
4BB-/	2B-\	2g/	2b-\
4C/	.	.	.
1D	2A/	4d/	4f/
.	.	4e/	4g/
.	1A	4f/	4a\
.	.	4e/	4g/
2D/	.	4f/	4a\
.	.	4g/	4b-\
=11	=11	=11	=11
*M2/1	*M2/1	*M2/1	*M2/1
*met(C|)	*met(C|)	*met(C|)	*met(C|)
1.AA	2A/	2a\	2cc\
.	2D/	2f/	2.dd\
.	2E/	1e	.
.	.	.	8cc#X\
!	!	!	!LO:SIC:v:s=8bn\
.	.	.	8b-\
2AA/	2A/	.	2cc#\
=12-	=12-	=12-	=12-
1D	2A/	2f#X/	2dd\
.	2.D/	2.a\	2.ff\
1r	.	.	.
.	4D/	4a\	4ff\
.	2A/	2cc\	2ee\
=13	=13	=13	=13
0r	2B-\	2b-\	2dd\
.	2c\	4a\	4cc\
.	.	4g/	4b-\
.	2d\	2f#X/	2a\
.	2G/	2.g/	2b-\
=14-	=14-	=14-	=14-
1r	2d\	.	1a
.	.	8f#X/	.
.	.	8e/	.
.	2D/	2f#/	.
2r	2G/	2g/	2g/
2GG/	[2G/	[<2b-\	[<2dd\
=15	=15	=15	=15
4GG/	4G/]	4b-\]	4dd\]
4GG/	4G/	4b-\	4dd\
2C/	2G/	4a\	4cc\
.	.	4g/	4b-\
2D/	2d\	2f/	2a\
2E-X\	2B-\	4e-X/	2g/
.	.	4d/	.
=16-	=16-	=16-	=16-
2F\	2A/	2c/	2a\
2BB-/	2.B-\	1f	2dd\
1F	.	.	1cc
.	8A/	.	.
.	8G/	.	.
.	2A/	2c/	.
=17	=17	=17	=17
2.BB-/	2.B-\	2d/	2b-\
.	.	2.dd\	2.ff\
4D/	4F/	.	.
2D/	2A/	.	.
.	.	4dd\	4ff\
2AA/	2A/	2cc\	2ee\
=18-	=18-	=18-	=18-
2BB-/	2F/	2b-\	2dd\
2FF/	2A/	1a	2cc\
1GG	2B-\	.	1b-
.	4A/	2g/	.
.	4G/	.	.
=19	=19	=19	=19
!LO:TX:b:t=Partitura Nicolai Zielenski.	!	!	!
2D/	2A/	2f#X/	2a\
1BB-	1B-	1b-	1dd
2.F\	2.c\	2.a\	2.cc\
=20-	=20-	=20-	=20-
.	.	.	.
4F\	4c\	4a\	4cc\
1F	1c	1a	1cc
2C/	2e-X\	2g/	2cc\
=21	=21	=21	=21
2C/	2e-yX\	2g/	2cc\
2C/	2.c\	2.g/	2ee-X\
1G	.	.	1dd
!	!LO:N:acc=#	!	!
.	8Bn\	4f/	.
.	8A\	.	.
.	2B\	2d/	.
=22-	=22-	=22-	=22-
2.C/	2.c\	2.e/	2cc\
.	.	.	2g/
4C/	4G/	4e/	.
2AA/	2A/	2f/	2cc\
2BB-/	2F/	2d/	2b-\
=23	=23	=23	=23
1FF	1F	2.c/	1a
.	.	4d/	.
!LO:TX:b:t=H        2	!	!	!
2.C/	2.G/	2e/	2g/
.	.	2e/	2g/
4C/	4E/	.	.
=24-	=24-	=24-	=24-
2.AA/	2E/	1.c	2a\
.	2E/	.	2.cc\
4GG/	.	.	.
2FF/	1F	.	.
.	.	.	4b-\
2FF/	.	2c/	2a\
*custos:C	*custos:E	*custos:c	*custos:g
!!pagebreak:original
=25	=25	=25	=25
1C	2E/	1c	2.g/
.	1G	.	.
.	.	.	4a\
!	!	!	!LO:N:acc=#
0GG	.	2d/	2bn\
.	2G/	2e/	2.cc\
=26-	=26-	=26-	=26-
.	1G	1d	.
!	!	!	!LO:N:acc=#
.	.	.	8bn\
.	.	.	8a\
.	.	.	2b\
=27-	=27-	=27-	=27-
*M3/2	*M3/2	*M3/2	*M3/2
1C	1G	1e	1cc
2C/	2G/	2e/	2cc\
=28	=28	=28	=28
1GG	1G	1d	1b-
2BB-/	2F/	2d/	2b-\
2FF/	1c	1a	1cc
2F\	.	.	.
2BB-/	2d\	2g/	2b-\
=29-	=29-	=29-	=29-
1F	2.c\	2f/	2a\
.	.	1c	1g
.	4A/	.	.
2E\	2G/	.	.
1F	1F	1c	1a
2FF/	2F/	2f/	2a\
=30	=30	=30	=30
1BB-	1F	4B-/	4d/
.	.	4c/	4e/
.	.	4d/	4f/
.	.	4c/	4e/
2BB-/	2F/	4d/	4f/
.	.	4e/	4g/
1FF	4F/	1f	1a
.	4G/	.	.
.	4A/	.	.
.	4G/	.	.
2FF/	4A/	2f/	2a\
.	4B-\	.	.
=31-	=31-	=31-	=31-
2C/	2c\	4e/	4g/
.	.	4f/	4a\
1GG	1d	4g/	4b-\
.	.	4f/	4a\
.	.	4g/	4b-\
.	.	4a\	4cc\
4GG/	1B-	1b-	1dd
4AA/	.	.	.
4BB-/	.	.	.
4GG/	.	.	.
4BB-/	2B-\	2g/	2b-\
4C/	.	.	.
=32	=32	=32	=32
1D	1A	4d/	4f/
.	.	4e/	4g/
.	.	4f/	4a\
.	.	4e/	4g/
2D/	2F/	4f/	4a\
.	.	4g/	4b-\
2.AA/	1E	2.a\	2.cc\
4BB-/	.	8g/	8b-\
.	.	8f/	8a\
2C/	2E/	4e/	4g/
.	.	4f/	4a\
=33-	=33-	=33-	=33-
2.GG/	1D	2.g/	2.b-\
4AA/	.	8f/	8a\
.	.	8e/	8g\
2BB-/	2D/	4d/	4f/
.	.	4e/	4g/
1FF	1A	2.f/	2.a\
.	.	8e/	8g/
.	.	8d/	8f/
2C/	2G/	4c/	4e/
.	.	4d/	4f/
=34	=34	=34	=34
2.C/	1c	2e/	2g/
.	.	2.a\	2.cc\
4D/	.	.	.
2E\	2c\	.	.
.	.	4g/	4b-\
2F\	2c\	1f	2a\
1C	1c	.	1g
.	.	2e/	.
=35-	=35-	=35-	=35-
*M2/1	*M2/1	*M2/1	*M2/1
*met(C|)	*met(C|)	*met(C|)	*met(C|)
2FF/	2c\	2f/	2a\
1BB-	1d	1f	1b-
2AA/	2c\	2f/	2cc\
=36	=36	=36	=36
0BB-	2.B-\	0f	2.dd\
.	4c\	.	4cc\
.	1d	.	4b-\
!	!	!	!LO:TX:t=P:problem=usunięta 1b-
.	.	.	4f/
.	.	.	4a\
.	.	.	4g/
=37-	=37-	=37-	=37-
0FFl	0cl	0fl	0al
==	==	==	==
*-	*-	*-	*-
!!!system-decoration: [s1,s2,s3,s4]
!!!RDF**kern: l = terminal long
!!!RDF**kern: i = editorial accidental
!!!RDF**kern: > = above
!!!RDF**kern: < = below
!!!ENC: Katarzyna Serwa
!!!END: 2021-12-26
!!!ENC: Filip Voros
!!!END: 2021-12-21
